X: 17
T:LA ROUSSETTE
M:3/4
L:1/8
Q:90
C:M.P.
R:mazurka
K:C
cd|e2edgf|e2edgf|1e2ccBc|d4:|2e2cedB|c4||
|:cB|A2A2fe|d2d2cB|1A2ABcd|e4:|2A2Afed|c4||
